images/icons/generic-homepage.svg

<svg fill="none" height="24" viewBox="0 0 24 24" width="24" xmlns="http://www.w3.org/2000/svg"><path d="m3.74286 24c-.75429 0-1.4-.2686-1.93715-.8057-.53714-.5372-.80571-1.1829-.80571-1.9372v-12.34281c0-.43429.09714-.84572.29143-1.23429.19428-.38857.46286-.70857.80571-.96l8.22856-6.171429c.2514-.182857.5143-.32.7886-.411428.2743-.0914287.56-.137143.8571-.137143.2972 0 .5829.0457143.8572.137143.2743.091428.5371.228571.7885.411428l8.2286 6.171429c.3429.25143.6114.57143.8057.96s.2915.8.2915 1.23429v12.34281c0 .7543-.2686 1.4-.8058 1.9372-.5371.5371-1.1828.8057-1.9371.8057h-5.4857v-9.6h-5.48573v9.6z" fill="#fff"/></svg>

<svg width="24" height="24" viewBox="0 0 24 24" fill="none" xmlns="http://www.w3.org/2000/svg">
<path d="M3.74286 24C2.98857 24 2.34286 23.7314 1.80571 23.1943C1.26857 22.6571 1 22.0114 1 21.2571V8.91429C1 8.48 1.09714 8.06857 1.29143 7.68C1.48571 7.29143 1.75429 6.97143 2.09714 6.72L10.3257 0.548571C10.5771 0.365714 10.84 0.228571 11.1143 0.137143C11.3886 0.0457143 11.6743 0 11.9714 0C12.2686 0 12.5543 0.0457143 12.8286 0.137143C13.1029 0.228571 13.3657 0.365714 13.6171 0.548571L21.8457 6.72C22.1886 6.97143 22.4571 7.29143 22.6514 7.68C22.8457 8.06857 22.9429 8.48 22.9429 8.91429V21.2571C22.9429 22.0114 22.6743 22.6571 22.1371 23.1943C21.6 23.7314 20.9543 24 20.2 24H14.7143V14.4H9.22857V24H3.74286Z" fill="white"/>
</svg>
